cssgg/corner-double-up-left.svg

<svg
  width="24"
  height="24"
  viewBox="0 0 24 24"
  fill="none"
  xmlns="http://www.w3.org/2000/svg"
>
  <path
    d="M9.25045 7.78369L7.83624 6.36948L3.59363 10.6121L7.83627 14.8547L9.25048 13.4405L6.42205 10.6121L9.25045 7.78369Z"
    fill="currentColor"
  />
  <path
    d="M13.4932 13.4405L12.0789 14.8547L7.83627 10.6121L12.0789 6.36948L13.4931 7.78369L11.6463 9.63049L16.4063 9.63049C18.6155 9.63049 20.4063 11.4214 20.4063 13.6305L20.4063 17.6305L18.4063 17.6305L18.4063 13.6305C18.4063 12.5259 17.5109 11.6305 16.4063 11.6305L11.6831 11.6305L13.4932 13.4405Z"
    fill="currentColor"
  />
</svg>

<svg viewBox="0 0 24 24" xmlns="http://www.w3.org/2000/svg"><g><path d="M9.25 7.78L7.83 6.36 3.58 10.6l4.24 4.24 1.41-1.42 -2.83-2.83 2.82-2.83Z"/><path d="M13.49 13.44l-1.42 1.41 -4.25-4.25 4.24-4.25 1.41 1.41 -1.85 1.84h4.76c2.2 0 4 1.79 4 4v4h-2v-4c0-1.11-.9-2-2-2h-4.73l1.81 1.81Z"/></g></svg>
